X:1
T:The Hybrid Bow
C:T. S. Macdonald
L:1/8
M:C|
K:Amix =g
ag | fdfa g2 eg | f2 df ecAa | fdfa gfed | cABc dcag |
     fdfa !turn!g2 eg | !turn!f2 df ecAc | dcde fgab | eAcA d2 ||
cd | eAcA a2 cd | eAcA a2 cd | eAea fedc | B2 B/B/B B2 cd |
     eAcA a2 cd | eAcA a2 gf | efed edBG | A2 A/A/A A2 |]

